Newaita/actions/scalable/draw-bezier-curves.svg

<?xml version="1.0" encoding="UTF-8"?>
<svg xmlns="http://www.w3.org/2000/svg" xmlns:xlink="http://www.w3.org/1999/xlink" width="512pt" height="512pt" viewBox="0 0 512 512" version="1.1">
<g id="surface1">
<path style=" stroke:none;fill-rule:nonzero;fill:rgb(47.058824%,56.470591%,61.176473%);fill-opacity:1;" d="M 21.167969 78.089844 C 75.410156 168.492188 121.925781 258.898438 94.773438 342.707031 C 94.9375 342.707031 95.097656 342.699219 95.257812 342.699219 C 109.207031 342.699219 122.226562 346.519531 133.34375 353.167969 C 133.339844 353.164062 133.332031 353.160156 133.328125 353.15625 C 162.914062 279.441406 132.574219 200.339844 88.101562 120.429688 L 349.285156 120.429688 L 349.285156 78.089844 Z M 134.667969 353.980469 C 134.726562 354.015625 134.785156 354.050781 134.84375 354.089844 C 134.785156 354.050781 134.726562 354.015625 134.667969 353.980469 Z M 136.117188 354.910156 C 136.171875 354.945312 136.230469 354.984375 136.289062 355.023438 C 136.230469 354.984375 136.171875 354.945312 136.117188 354.910156 Z M 137.523438 355.863281 C 137.589844 355.910156 137.660156 355.957031 137.726562 356.003906 C 137.660156 355.957031 137.589844 355.910156 137.523438 355.863281 Z M 138.929688 356.863281 C 138.996094 356.910156 139.058594 356.957031 139.125 357.003906 C 139.058594 356.957031 138.996094 356.910156 138.929688 356.863281 Z M 140.300781 357.886719 C 140.367188 357.9375 140.4375 357.988281 140.503906 358.039062 C 140.4375 357.988281 140.367188 357.9375 140.300781 357.886719 Z M 141.671875 358.960938 C 141.730469 359.003906 141.785156 359.050781 141.84375 359.09375 C 141.785156 359.050781 141.730469 359.003906 141.671875 358.960938 Z M 142.992188 360.042969 C 143.054688 360.09375 143.113281 360.148438 143.175781 360.199219 C 143.113281 360.148438 143.054688 360.09375 142.992188 360.042969 Z M 144.28125 361.152344 C 144.351562 361.214844 144.421875 361.277344 144.488281 361.335938 C 144.421875 361.277344 144.351562 361.214844 144.28125 361.152344 Z M 145.578125 362.324219 C 145.628906 362.371094 145.679688 362.417969 145.730469 362.464844 C 145.679688 362.417969 145.628906 362.371094 145.578125 362.324219 Z M 146.835938 363.511719 C 146.875 363.550781 146.914062 363.589844 146.953125 363.628906 C 146.914062 363.589844 146.875 363.550781 146.835938 363.511719 Z M 148.0625 364.726562 C 148.09375 364.757812 148.125 364.789062 148.152344 364.820312 C 148.125 364.789062 148.09375 364.757812 148.0625 364.726562 Z M 166.300781 395.621094 C 168.28125 402.324219 169.347656 409.425781 169.347656 416.789062 C 169.347656 424.152344 168.28125 431.253906 166.300781 437.957031 L 254.023438 437.957031 L 254.023438 395.621094 Z M 166.300781 395.621094 "/>
<path style=" stroke:none;fill-rule:nonzero;fill:rgb(25.882354%,25.882354%,25.882354%);fill-opacity:1;" d="M 285.777344 342.699219 C 268.1875 342.699219 254.023438 356.859375 254.023438 374.453125 L 254.023438 459.128906 C 254.023438 476.71875 268.1875 490.878906 285.777344 490.878906 L 370.453125 490.878906 C 388.042969 490.878906 402.203125 476.71875 402.203125 459.128906 L 402.203125 374.453125 C 402.203125 356.859375 388.042969 342.699219 370.453125 342.699219 Z M 306.945312 374.453125 L 349.285156 374.453125 C 361.011719 374.453125 370.453125 383.894531 370.453125 395.621094 L 370.453125 437.957031 C 370.453125 449.6875 361.011719 459.125 349.285156 459.125 L 306.945312 459.125 C 295.21875 459.125 285.777344 449.6875 285.777344 437.957031 L 285.777344 395.621094 C 285.777344 383.894531 295.21875 374.453125 306.945312 374.453125 Z M 306.945312 374.453125 "/>
<path style=" stroke:none;fill-rule:nonzero;fill:rgb(25.882354%,25.882354%,25.882354%);fill-opacity:1;" d="M 95.257812 342.699219 C 54.214844 342.699219 21.167969 375.742188 21.167969 416.789062 C 21.167969 457.835938 54.214844 490.878906 95.257812 490.878906 C 136.304688 490.878906 169.347656 457.835938 169.347656 416.789062 C 169.347656 375.742188 136.304688 342.699219 95.257812 342.699219 Z M 95.257812 374.453125 C 118.714844 374.453125 137.597656 393.335938 137.597656 416.789062 C 137.597656 440.246094 118.714844 459.125 95.257812 459.125 C 71.804688 459.125 52.921875 440.246094 52.921875 416.789062 C 52.921875 393.335938 71.804688 374.453125 95.257812 374.453125 Z M 95.257812 374.453125 "/>
<path style=" stroke:none;fill-rule:nonzero;fill:rgb(25.882354%,25.882354%,25.882354%);fill-opacity:1;" d="M 412.789062 25.167969 C 371.742188 25.167969 338.699219 58.214844 338.699219 99.261719 C 338.699219 140.304688 371.742188 173.351562 412.789062 173.351562 C 453.835938 173.351562 486.878906 140.304688 486.878906 99.261719 C 486.878906 58.214844 453.835938 25.167969 412.789062 25.167969 Z M 412.789062 56.921875 C 436.246094 56.921875 455.125 75.804688 455.125 99.257812 C 455.125 122.714844 436.246094 141.597656 412.789062 141.597656 C 389.335938 141.597656 370.453125 122.714844 370.453125 99.257812 C 370.453125 75.804688 389.335938 56.921875 412.789062 56.921875 Z M 412.789062 56.921875 "/>
</g>
</svg>

<svg xmlns="http://www.w3.org/2000/svg" width="512pt" height="512pt" viewBox="0 0 512 512"><path d="M21.168 78.09c54.242 90.402 100.758 180.808 73.605 264.617.165 0 .325-.008.485-.008 13.949 0 26.969 3.82 38.086 10.469l-.016-.012c29.586-73.715-.754-152.816-45.226-232.726h261.183V78.09zm113.5 275.89c.059.036.117.07.176.11-.059-.04-.117-.074-.176-.11zm1.45.93zm1.405.953l.204.14-.204-.14zm1.407 1c.066.047.129.094.195.14-.066-.046-.129-.093-.195-.14zm1.37 1.024l.204.152c-.066-.05-.137-.101-.203-.152zm1.372 1.074c.058.043.113.09.172.133-.059-.043-.114-.09-.172-.133zm1.32 1.082c.063.05.121.105.184.156-.063-.05-.121-.105-.184-.156zm1.29 1.11zm1.296 1.171l.152.14-.152-.14zm1.258 1.188l.117.117-.117-.117zm1.226 1.215c.032.03.063.062.09.093-.027-.03-.058-.062-.09-.093zm18.239 30.894a74.585 74.585 0 0 1 3.047 21.168 74.585 74.585 0 0 1-3.047 21.168h87.722v-42.336zm0 0" fill="#78909c"/><path d="M285.777 342.7c-17.59 0-31.754 14.16-31.754 31.753v84.676c0 17.59 14.165 31.75 31.754 31.75h84.676c17.59 0 31.75-14.16 31.75-31.75v-84.676c0-17.594-14.16-31.754-31.75-31.754zm21.168 31.753h42.34a21.122 21.122 0 0 1 21.168 21.168v42.336a21.12 21.12 0 0 1-21.168 21.168h-42.34a21.12 21.12 0 0 1-21.168-21.168v-42.336a21.122 21.122 0 0 1 21.168-21.168zm0 0M95.258 342.7c-41.043 0-74.09 33.042-74.09 74.09 0 41.046 33.047 74.089 74.09 74.089 41.047 0 74.09-33.043 74.09-74.09 0-41.047-33.043-74.09-74.09-74.09zm0 31.753c23.457 0 42.34 18.883 42.34 42.336 0 23.457-18.883 42.336-42.34 42.336-23.453 0-42.336-18.879-42.336-42.336 0-23.453 18.883-42.336 42.336-42.336zm0 0M412.79 25.168c-41.048 0-74.09 33.047-74.09 74.094 0 41.043 33.042 74.09 74.09 74.09 41.046 0 74.089-33.047 74.089-74.09 0-41.047-33.043-74.094-74.09-74.094zm0 31.754c23.456 0 42.335 18.883 42.335 42.336 0 23.457-18.879 42.34-42.336 42.34-23.453 0-42.336-18.883-42.336-42.34 0-23.453 18.883-42.336 42.336-42.336zm0 0" fill="#424242"/></svg>
